swiss/communes/0092.svg

<?xml version="1.0" encoding="UTF-8" standalone="no"?>
<!-- Created with Inkscape (http://www.inkscape.org/) -->
<svg
   xmlns:svg="http://www.w3.org/2000/svg"
   xmlns="http://www.w3.org/2000/svg"
   xmlns:xlink="http://www.w3.org/1999/xlink"
   version="1.0"
   width="238.17487"
   height="278.98483"
   id="svg2780">
  <defs
     id="defs2782" />
  <g
     transform="translate(-4.1544903,-785.68212)"
     id="layer1">
    <path
       d="M 5.1544902,786.68212 L 9.4485743,967.0443 C 12.51577,1095.8745 233.96807,1095.8745 237.03528,967.0443 L 241.32936,786.68212 L 5.1544902,786.68212 z"
       id="path3282"
       style="fill:#ffffff;fill-opacity:1;fill-rule:evenodd;stroke:#000000;stroke-width:1.99999988;stroke-linecap:butt;stroke-miterlimit:4;stroke-dashoffset:0;stroke-opacity:1" />
    <path
       d="M 205.14953,907.84384 C 207.17609,962.80146 170.07941,990.2974 163.24593,988.01929 C 157.22969,986.01363 153.20478,990.23047 149.80288,993.58664 C 145.634,997.69947 135.21311,990.40617 128.48776,984.35471 C 125.55921,981.71959 120.1706,981.15654 120.18753,985.96172 C 120.21506,993.87261 116.34891,997.02407 113.06289,994.46288 C 111.29278,993.08324 109.53478,989.75244 106.75691,992.70138 C 105.16702,991.11862 99.751961,989.55249 98.331718,991.56031 C 96.976095,993.47678 93.242811,993.49302 91.670722,991.31025 C 89.240824,987.93646 84.461978,984.16646 79.317658,988.01929 C 49.043002,963.86695 42.734862,941.98694 42.500631,904.30276 C -13.279169,1079.8412 258.36363,1084.5571 205.14953,907.84384 z"
       id="path2561"
       style="fill:#dd4229;fill-opacity:1;fill-rule:evenodd;stroke:#000000;stroke-width:0.99921268;stroke-linecap:butt;stroke-linejoin:round;stroke-miterlimit:4;stroke-dasharray:none;stroke-opacity:1" />
    <path
       d="M 152.02335,1007.422 C 155.71196,1005.1319 157.50783,999.37251 156.34274,993.3337"
       id="path2392"
       style="fill:none;fill-opacity:0.75;fill-rule:evenodd;stroke:#000000;stroke-width:0.99921268;stroke-linecap:round;stroke-linejoin:miter;stroke-miterlimit:4;stroke-dasharray:none;stroke-opacity:1" />
    <path
       d="M 137.34905,1003.654 C 137.27029,1005.559 139.42875,1010.7833 140.4502,1012.3826 C 142.01457,1009.8173 143.64356,1004.5563 144.196,999.72467 L 147.90726,1001.4448"
       id="path2394"
       style="fill:none;fill-opacity:0.75;fill-rule:evenodd;stroke:#000000;stroke-width:0.99921268;stroke-linecap:round;stroke-linejoin:round;stroke-miterlimit:4;stroke-dasharray:none;stroke-opacity:1" />
    <path
       d="M 128.08748,1000.2055 C 113.44101,1005.3223 124.10757,994.28006 122.76122,990.97426"
       id="path2396"
       style="fill:none;fill-opacity:0.75;fill-rule:evenodd;stroke:#000000;stroke-width:1.00000012px;stroke-linecap:round;stroke-linejoin:miter;stroke-opacity:1" />
    <path
       d="M 106.39359,992.87124 C 106.39359,995.19433 106.00882,998.80388 105.66696,1003.5159 C 103.00598,1001.7112 101.33587,995.52129 101.29666,991.14784"
       id="path2398"
       style="fill:none;fill-opacity:0.75;fill-rule:evenodd;stroke:#000000;stroke-width:1.00000012px;stroke-linecap:butt;stroke-linejoin:miter;stroke-opacity:1" />
    <path
       d="M 103.60739,1004.4412 C 105.3035,1004.4549 107.12212,1003.9565 109.04658,1003.0164"
       id="path2400"
       style="opacity:1;color:#000000;fill:none;fill-opacity:0.75;fill-rule:evenodd;stroke:#000000;stroke-width:1.00000012px;stroke-linecap:round;stroke-linejoin:miter;marker:none;marker-start:none;marker-mid:none;marker-end:none;stroke-miterlimit:4;stroke-dasharray:none;stroke-dashoffset:0;stroke-opacity:1;visibility:visible;display:inline;overflow:visible;enable-background:accumulate" />
    <path
       d="M 137.43828,1004.9048 C 137.235,1003.8325 138.71442,1003.3174 140.20479,1003.0888 C 142.28585,1002.7697 144.30245,1001.7209 143.42796,1004.1563 C 142.88104,1005.6793 142.4892,1005.6531 140.57701,1005.7077 C 139.07122,1005.7507 137.62545,1005.8921 137.43828,1004.9048 z"
       id="path2402"
       style="color:#000000;fill:#000000;fill-opacity:1;fill-rule:evenodd;stroke:none;stroke-width:0.98595467pt;stroke-linecap:butt;stroke-linejoin:round;marker:none;marker-start:none;marker-mid:none;marker-end:none;stroke-miterlimit:4;stroke-dashoffset:0;stroke-opacity:1;visibility:visible;display:inline;overflow:visible;enable-background:accumulate" />
    <path
       d="M 150.73328,997.68905 C 147.42907,998.6315 149.01282,1005.9507 140.4502,1012.3826"
       id="path3870"
       style="opacity:1;color:#000000;fill:none;fill-opacity:0.75;fill-rule:evenodd;stroke:#000000;stroke-width:0.99921268;stroke-linecap:round;stroke-linejoin:miter;marker:none;marker-start:none;marker-mid:none;marker-end:none;stroke-miterlimit:4;stroke-dasharray:none;stroke-dashoffset:0;stroke-opacity:1;visibility:visible;display:inline;overflow:visible;enable-background:accumulate" />
    <path
       d="M 120.61184,169.07225 L 112.25053,142.60719 L 85.150468,148.59862 L 103.88923,128.12498 L 85.150466,107.65135 L 112.25053,113.64278 L 120.61184,87.177719 L 128.97314,113.64278 L 156.07321,107.65135 L 137.33445,128.12498 L 156.07321,148.59862 L 128.97314,142.60719 L 120.61184,169.07225 z"
       transform="matrix(1.0431636,0,0,1.0430635,-2.5759539,786.92681)"
       id="path5822"
       style="fill:#dd4229;fill-opacity:1;fill-rule:evenodd;stroke:#000000;stroke-width:0.95791358;stroke-linecap:butt;stroke-linejoin:miter;stroke-miterlimit:4;stroke-dasharray:none;stroke-opacity:1" />
    <use
       transform="translate(-60.29344,-76.577682)"
       id="use5824"
       x="0"
       y="0"
       width="248.03149"
       height="248.03149"
       xlink:href="#path5822" />
    <use
       transform="translate(60.293437,-76.577682)"
       id="use5826"
       x="0"
       y="0"
       width="248.03149"
       height="248.03149"
       xlink:href="#path5822" />
  </g>
</svg>

<svg xmlns="http://www.w3.org/2000/svg" xmlns:xlink="http://www.w3.org/1999/xlink" version="1.0" width="238.175" height="278.985"><g transform="translate(-4.154 -785.682)"><path d="M5.154 786.682 9.45 967.044c3.067 128.83 224.52 128.83 227.586 0l4.294-180.362H5.154z" style="fill:#fff;fill-opacity:1;fill-rule:evenodd;stroke:#000;stroke-width:1.99999988;stroke-linecap:butt;stroke-miterlimit:4;stroke-dashoffset:0;stroke-opacity:1"/><path d="M205.15 907.844c2.026 54.957-35.07 82.453-41.904 80.175-6.016-2.005-10.041 2.211-13.443 5.568-4.169 4.112-14.59-3.18-21.315-9.232-2.929-2.635-8.317-3.198-8.3 1.607.027 7.91-3.84 11.062-7.125 8.5-1.77-1.379-3.528-4.71-6.306-1.76-1.59-1.583-7.005-3.15-8.425-1.142-1.356 1.917-5.09 1.933-6.661-.25-2.43-3.374-7.209-7.144-12.353-3.29-30.275-24.153-36.583-46.033-36.817-83.717-55.78 175.538 215.863 180.254 162.649 3.54z" style="fill:#dd4229;fill-opacity:1;fill-rule:evenodd;stroke:#000;stroke-width:.99921268;stroke-linecap:butt;stroke-linejoin:round;stroke-miterlimit:4;stroke-dasharray:none;stroke-opacity:1"/><path d="M152.023 1007.422c3.689-2.29 5.485-8.05 4.32-14.088" style="fill:none;fill-opacity:.75;fill-rule:evenodd;stroke:#000;stroke-width:.99921268;stroke-linecap:round;stroke-linejoin:miter;stroke-miterlimit:4;stroke-dasharray:none;stroke-opacity:1"/><path d="M137.35 1003.654c-.08 1.905 2.079 7.13 3.1 8.729 1.565-2.566 3.194-7.827 3.746-12.658l3.711 1.72" style="fill:none;fill-opacity:.75;fill-rule:evenodd;stroke:#000;stroke-width:.99921268;stroke-linecap:round;stroke-linejoin:round;stroke-miterlimit:4;stroke-dasharray:none;stroke-opacity:1"/><path d="M128.087 1000.206c-14.646 5.116-3.98-5.926-5.326-9.232" style="fill:none;fill-opacity:.75;fill-rule:evenodd;stroke:#000;stroke-width:1.00000012px;stroke-linecap:round;stroke-linejoin:miter;stroke-opacity:1"/><path d="M106.394 992.871c0 2.323-.385 5.933-.727 10.645-2.661-1.805-4.331-7.995-4.37-12.368" style="fill:none;fill-opacity:.75;fill-rule:evenodd;stroke:#000;stroke-width:1.00000012px;stroke-linecap:butt;stroke-linejoin:miter;stroke-opacity:1"/><path d="M103.607 1004.441c1.697.014 3.515-.485 5.44-1.425" style="opacity:1;color:#000;fill:none;fill-opacity:.75;fill-rule:evenodd;stroke:#000;stroke-width:1.00000012px;stroke-linecap:round;stroke-linejoin:miter;marker:none;marker-start:none;marker-mid:none;marker-end:none;stroke-miterlimit:4;stroke-dasharray:none;stroke-dashoffset:0;stroke-opacity:1;visibility:visible;display:inline;overflow:visible;enable-background:accumulate"/><path d="M137.438 1004.905c-.203-1.072 1.276-1.588 2.767-1.816 2.08-.32 4.097-1.368 3.223 1.067-.547 1.523-.939 1.497-2.851 1.552-1.506.043-2.952.184-3.139-.803z" style="color:#000;fill:#000;fill-opacity:1;fill-rule:evenodd;stroke:none;stroke-width:.98595467pt;stroke-linecap:butt;stroke-linejoin:round;marker:none;marker-start:none;marker-mid:none;marker-end:none;stroke-miterlimit:4;stroke-dashoffset:0;stroke-opacity:1;visibility:visible;display:inline;overflow:visible;enable-background:accumulate"/><path d="M150.733 997.689c-3.304.942-1.72 8.262-10.283 14.694" style="opacity:1;color:#000;fill:none;fill-opacity:.75;fill-rule:evenodd;stroke:#000;stroke-width:.99921268;stroke-linecap:round;stroke-linejoin:miter;marker:none;marker-start:none;marker-mid:none;marker-end:none;stroke-miterlimit:4;stroke-dasharray:none;stroke-dashoffset:0;stroke-opacity:1;visibility:visible;display:inline;overflow:visible;enable-background:accumulate"/><path d="m120.612 169.072-8.361-26.465-27.1 5.992 18.738-20.474-18.739-20.474 27.1 5.992 8.362-26.465 8.361 26.465 27.1-5.992-18.739 20.474 18.74 20.474-27.1-5.992-8.362 26.465z" transform="matrix(1.04316 0 0 1.04306 -2.576 786.927)" id="a" style="fill:#dd4229;fill-opacity:1;fill-rule:evenodd;stroke:#000;stroke-width:.95791358;stroke-linecap:butt;stroke-linejoin:miter;stroke-miterlimit:4;stroke-dasharray:none;stroke-opacity:1"/><use transform="translate(-60.293 -76.578)" width="248.031" height="248.031" xlink:href="#a"/><use transform="translate(60.293 -76.578)" width="248.031" height="248.031" xlink:href="#a"/></g></svg>
